X:711
T:Ratha Fair. JBut.708
N:Same title, Aird's Airs, vol.6 (1801), No.38, p.15, very similar setting.
N:Rhythmic differences to Aird's in B Part may be copying errors.
N:Same title, Robert Bremner-A Collection of Scottish Reels or Country Dances (1757),
N:p.1, similar but different setting.
N:Also claimed by Gow, second Repository (1802)
B:John Buttrey MS, poss. Lincolnshire, early 19thC
S:https://buttreymilitarysocialtunes1800.wordpress.com/
Z:vmp.2019.Greg Bradfield-Smith.
M:C
L:1/8
Q:1/2=70
K:Ador
d|B>eed B>GdB|B>ef gefd|B>eed B>cdB|B<ed>B A2A:|
|:B|G>EE>G D>EGD|E/E/E Ed edBA|G>EE>G D>EG>A|B>ed>B A2A:|

